<?xml version="1.0" encoding="UTF-8"?>
<map version="1.10" tiledversion="1.12.1" orientation="orthogonal" renderorder="right-down" width="16" height="12" tilewidth="16" tileheight="16" infinite="0" nextlayerid="26" nextobjectid="150">
 <editorsettings>
  <chunksize width="16" height="11"/>
  <export target="assets/maps/coding_in_the_dark.json" format="json"/>
 </editorsettings>
 <tileset firstgid="1" source="assets/tilesets/Room_Builder_16x16.tsx"/>
 <tileset firstgid="8589" source="assets/tilesets/13_Conference_Hall_16x16.tsx"/>
 <tileset firstgid="8781" source="assets/tilesets/1_Generic_16x16.tsx"/>
 <tileset firstgid="10029" source="assets/tilesets/14_Basement_16x16.tsx"/>
 <tileset firstgid="10829" source="assets/tilesets/Premade_Character_17.tsx"/>
 <tileset firstgid="13125" source="assets/tilesets/Body_ultra_white.tsx"/>
 <tileset firstgid="15462" source="assets/tilesets/Hairstyle_27_06_red_red.tsx"/>
 <tileset firstgid="17758" source="assets/tilesets/Eyes_05_brown.tsx"/>
 <tileset firstgid="20054" source="assets/tilesets/Outfit_13_04.tsx"/>
 <tileset firstgid="22350" source="assets/tilesets/animated_amplifier_big.tsx"/>
 <tileset firstgid="22359" source="../../4_Bedroom_16x16.tsx"/>
 <tileset firstgid="24071" source="assets/tilesets/23_Television_and_Film_Studio.tsx"/>
 <tileset firstgid="24295" source="assets/tilesets/images.tsx"/>
 <layer id="5" name="Tile Layer 0" width="16" height="12">
  <data encoding="csv">
5537,5537,5537,5537,5537,5537,5537,5537,5537,5537,5537,5537,5537,5537,5537,5537,
5537,5537,5537,5537,5537,5537,5537,5537,5537,5537,5537,5537,5537,5537,5537,5537,
5537,5537,5537,5537,5537,5537,5537,5537,5537,5537,5537,5537,5537,5537,5537,5537,
5537,5537,5537,5537,5537,5537,5537,5537,5537,5537,5537,5537,5537,5537,5537,5537,
5537,5537,5537,5537,5537,5537,5537,5537,5537,5537,5537,5537,5537,5537,5537,5537,
5537,5537,5537,5537,5537,5537,5537,5537,5537,5537,5537,5537,5537,5537,5537,5537,
5537,5537,5537,5537,5537,5537,5537,5537,5537,5537,5537,5537,5537,5537,5537,5537,
5537,5537,5537,5537,5537,5537,5537,5537,5537,5537,5537,5537,5537,5537,5537,5537,
5537,5537,5537,5537,5537,5537,5537,5537,5537,5537,5537,5537,5537,5537,5537,5537,
5537,5537,5537,5537,5537,5537,5537,5537,5537,5537,5537,5537,5537,5537,5537,5537,
5537,5537,5537,5537,5537,5537,5537,5537,5537,5537,5537,5537,5537,5537,5537,5537,
5537,5537,5537,5537,5537,5537,5537,5537,5537,5537,5537,5537,5537,5537,5537,5537
</data>
 </layer>
 <layer id="1" name="Tile Layer 1" width="16" height="12">
  <data encoding="csv">
4845,4845,4845,4845,4845,4845,4845,4845,4845,4845,4845,4845,4845,4845,4845,4845,
4997,4997,4997,4997,4997,4997,4997,4997,4997,4997,4997,4997,4997,4997,4997,4997,
10533,10533,4921,4921,4921,4921,4921,4921,4921,4921,4921,4921,4921,4921,4921,4921,
0,8605,8606,8607,8607,8607,8607,8607,8607,8607,8607,8607,8607,8608,8609,0,
0,8621,8622,8623,8623,8623,8623,8623,8623,8623,8623,8623,8623,8623,8625,0,
0,8621,8622,8623,8623,8623,8668,8623,8623,8668,8623,8623,8623,8623,8625,0,
0,8621,8622,8623,8623,8623,8623,8623,8623,8623,8623,8623,8623,8623,8625,0,
0,8685,8622,8623,8623,8623,8623,8623,8623,8623,8623,8623,8623,8623,8686,0,
0,8701,8638,8639,8639,8639,8639,8639,8639,8639,8639,8639,8639,8639,8702,0,
0,0,0,0,0,0,0,0,0,0,0,0,0,0,0,0,
0,0,0,0,0,0,0,0,0,0,0,0,0,0,0,0,
0,0,0,0,0,0,0,0,0,0,0,0,0,0,0,0
</data>
 </layer>
 <layer id="2" name="Layer 2" width="16" height="12">
  <data encoding="csv">
0,0,0,0,8717,8718,8719,8719,8719,8719,8720,8721,0,0,0,0,
10505,10506,0,0,8733,8734,8735,8735,8735,8735,8736,8737,0,10685,10686,0,
10521,10522,0,0,8749,8750,8751,8751,8751,8751,8752,8753,0,10701,10702,0,
10549,10549,0,0,0,0,0,0,0,0,0,0,0,10717,10718,0,
0,0,0,0,0,0,10959,0,0,0,0,0,0,0,0,0,
0,0,0,0,0,8781,11015,8782,8782,8782,8783,0,0,0,0,0,
0,0,0,0,0,8829,8830,8830,8830,8830,8831,0,0,0,0,0,
0,0,0,0,0,0,0,0,0,0,0,0,0,0,0,0,
0,0,0,0,0,0,0,0,0,0,0,0,0,0,0,0,
0,0,0,0,0,8712,0,8712,8712,8712,0,8712,0,0,0,0,
0,0,0,0,0,8728,8729,8728,8728,8728,8729,8728,0,0,0,0,
0,0,0,8729,8729,0,0,0,8729,0,8729,8729,8729,0,0,0
</data>
 </layer>
 <layer id="9" name="body_layer" width="16" height="12">
  <data encoding="csv">
0,0,0,0,0,0,0,0,0,0,0,0,0,0,0,0,
0,0,0,0,0,0,0,0,0,0,0,0,0,0,0,0,
0,0,0,0,0,0,0,0,0,0,0,0,0,0,0,0,
0,0,0,0,0,0,0,0,0,0,0,0,0,0,0,0,
0,0,0,0,0,0,0,0,0,0,0,0,0,0,0,0,
0,0,0,0,0,0,0,0,0,13314,0,0,0,0,0,0,
0,0,0,0,0,0,0,0,0,0,0,0,0,0,0,0,
0,0,0,0,0,0,0,0,0,0,0,0,0,0,0,0,
0,0,0,0,0,0,0,0,0,0,0,0,0,0,0,0,
0,0,0,0,0,0,0,0,0,0,0,0,0,0,0,0,
0,0,0,0,0,0,0,0,0,0,0,0,0,0,0,0,
0,0,0,0,0,0,0,0,0,0,0,0,0,0,0,0
</data>
 </layer>
 <layer id="11" name="eye_layer" width="16" height="12">
  <data encoding="csv">
0,0,0,0,0,0,0,0,0,0,0,0,0,0,0,0,
0,0,0,0,0,0,0,0,0,0,0,0,0,0,0,0,
0,0,0,0,0,0,0,0,0,0,0,0,0,0,0,0,
0,0,0,0,0,0,0,0,0,0,0,0,0,0,0,0,
0,0,0,0,0,0,0,0,0,0,0,0,0,0,0,0,
0,0,0,0,0,0,0,0,0,17944,0,0,0,0,0,0,
0,0,0,0,0,0,0,0,0,0,0,0,0,0,0,0,
0,0,0,0,0,0,0,0,0,0,0,0,0,0,0,0,
0,0,0,0,0,0,0,0,0,0,0,0,0,0,0,0,
0,0,0,0,0,0,0,0,0,0,0,0,0,0,0,0,
0,0,0,0,0,0,0,0,0,0,0,0,0,0,0,0,
0,0,0,0,0,0,0,0,0,0,0,0,0,0,0,0
</data>
 </layer>
 <layer id="12" name="outfit_layer" width="16" height="12">
  <data encoding="csv">
0,0,0,22350,0,0,0,0,0,0,0,0,22350,0,0,0,
0,0,0,22353,0,0,0,0,0,0,0,0,22353,0,0,0,
0,0,0,22356,0,0,0,0,0,0,0,0,22356,0,0,0,
0,0,0,0,0,0,0,0,0,0,0,0,0,0,0,0,
0,0,22350,0,0,0,0,0,0,0,0,0,0,22350,0,0,
0,0,22353,0,0,0,0,0,0,20240,0,0,0,22353,0,0,
0,0,22356,0,0,0,0,0,0,0,0,0,0,22356,0,0,
0,0,0,0,0,0,0,0,0,0,0,0,0,0,0,0,
0,0,0,0,0,0,0,0,0,0,0,0,0,0,0,0,
0,0,0,0,0,0,0,0,0,0,0,0,0,0,0,0,
0,0,0,0,0,0,0,0,0,0,0,0,0,0,0,0,
0,0,0,0,0,0,0,0,0,0,0,0,0,0,0,0
</data>
 </layer>
 <layer id="10" name="hair_layer" width="16" height="12">
  <data encoding="csv">
0,0,0,0,0,0,0,0,0,0,0,0,0,0,0,0,
0,0,0,0,0,0,0,0,0,0,0,0,0,0,0,0,
0,0,0,0,0,0,0,0,0,0,0,0,0,0,0,0,
0,0,0,0,0,0,0,0,0,0,0,0,0,0,0,0,
0,0,0,0,0,0,0,0,0,15592,0,0,0,0,0,0,
0,0,0,0,0,0,0,0,0,15648,0,0,0,0,0,0,
0,0,0,0,0,0,0,0,0,0,0,0,0,0,0,0,
0,0,0,0,0,0,0,0,0,0,0,0,0,0,0,0,
0,0,0,0,0,0,0,0,0,0,0,0,0,0,0,0,
0,0,0,0,0,0,0,0,0,0,0,0,0,0,0,0,
0,0,0,0,0,0,0,0,0,0,0,0,0,0,0,0,
0,0,0,0,0,0,0,0,0,0,0,0,0,0,0,0
</data>
 </layer>
 <layer id="4" name="Layer 3" width="16" height="12">
  <data encoding="csv">
0,0,0,0,0,0,0,0,0,0,0,0,0,0,0,0,
0,0,0,0,0,0,0,0,0,0,0,0,0,0,0,0,
0,0,0,0,0,0,0,0,0,0,0,0,0,0,0,0,
10783,10784,0,0,0,0,0,0,0,0,0,0,0,0,0,0,
10799,0,0,0,0,0,0,0,0,0,0,0,0,0,0,0,
0,0,0,0,0,0,8787,10505,10506,8787,0,0,0,0,0,0,
0,0,0,0,0,0,8803,10521,10522,8803,0,0,0,0,0,0,
0,0,0,0,0,0,0,0,0,0,0,0,0,0,0,0,
0,0,0,0,0,0,0,0,0,0,0,0,0,0,0,0,
0,0,0,0,0,0,0,0,0,0,0,0,0,0,0,8714,
0,0,0,0,0,8712,8712,8712,0,8712,0,0,0,0,0,8730,
0,0,0,0,0,8728,8728,8728,0,8728,0,0,0,0,0,0
</data>
 </layer>
 <objectgroup id="25" name="outlet">
  <object id="147" gid="10552" x="236" y="65" width="16" height="16"/>
  <object id="148" gid="10536" x="236" y="49" width="16" height="16"/>
 </objectgroup>
 <objectgroup id="22" name="background-logo">
  <object id="124" gid="24298" x="68" y="39" width="120" height="38"/>
 </objectgroup>
 <objectgroup id="23" name="logo">
  <object id="125" gid="24297" x="116" y="38" width="27" height="28"/>
 </objectgroup>
 <objectgroup id="18" name="spotlights">
  <object id="2" gid="24083" x="123" y="9" width="16" height="16"/>
  <object id="7" gid="24085" x="139" y="9" width="16" height="16"/>
  <object id="8" gid="24084" x="154" y="9" width="16" height="16"/>
  <object id="9" gid="24085" x="170" y="9" width="16" height="16"/>
  <object id="10" gid="24085" x="107" y="9" width="16" height="16"/>
  <object id="11" gid="24082" x="91" y="9" width="16" height="16"/>
  <object id="14" gid="24085" x="186" y="9" width="16" height="16"/>
  <object id="15" gid="24085" x="202" y="9" width="16" height="16"/>
  <object id="16" gid="24085" x="217" y="9" width="16" height="16"/>
  <object id="17" gid="24085" x="233" y="9" width="16" height="16"/>
  <object id="18" gid="24086" x="247" y="9" width="16" height="16"/>
  <object id="19" gid="24085" x="75" y="9" width="16" height="16"/>
  <object id="20" gid="24085" x="59" y="9" width="16" height="16"/>
  <object id="21" gid="24085" x="43" y="9" width="16" height="16"/>
  <object id="22" gid="24085" x="28" y="9" width="16" height="16"/>
  <object id="23" gid="24085" x="12" y="9" width="16" height="16"/>
  <object id="24" gid="24085" x="0" y="9" width="16" height="16"/>
  <object id="25" gid="24081" x="193" y="-7" width="16" height="16" rotation="90"/>
  <object id="28" gid="24081" x="50" y="-7" width="16" height="16" rotation="90"/>
 </objectgroup>
</map>
