<?xml version="1.0" encoding="UTF-8"?>
<map version="1.10" tiledversion="1.12.1" orientation="orthogonal" renderorder="right-down" width="16" height="12" tilewidth="16" tileheight="16" infinite="0" nextlayerid="13" nextobjectid="113">
 <editorsettings>
  <export target="assets/maps/learn_to_walk.json" format="json"/>
 </editorsettings>
 <tileset firstgid="1" source="assets/tilesets/Room_Builder_16x16.tsx"/>
 <tileset firstgid="8589" source="assets/tilesets/9_Fishing_16x16.tsx"/>
 <tileset firstgid="9021" source="assets/tilesets/4_Bedroom_16x16.tsx"/>
 <tileset firstgid="10733" source="assets/tilesets/animated_toytrain.tsx"/>
 <layer id="1" name="Floor" width="16" height="12">
  <data encoding="csv">
1468,1468,1468,1468,1468,1468,1468,1468,1468,1468,1468,1468,1468,1468,1468,1469,
1472,1472,1472,1472,1472,1472,1472,1472,1472,1472,1472,1472,1472,1472,1472,1473,
1472,1472,1472,1472,1472,1472,1472,1472,1472,1472,1472,1472,1472,1472,393,1473,
1544,1544,1544,1544,1544,1544,1544,1544,1544,1544,1544,1544,1544,1544,393,1545,
3381,3381,3381,3381,3381,3381,3381,3381,3381,3381,3381,3381,3381,3381,3381,3381,
3381,3381,3381,3381,3381,3381,3381,3381,3381,3381,3381,3381,3381,3381,3381,3381,
3381,3381,3381,3381,3381,3381,3381,3381,3381,3381,3381,3381,3381,3381,3381,3381,
3381,3381,3381,3381,3381,3381,3381,3381,3381,3381,3381,3381,3381,3381,3381,3381,
3381,3381,3381,3381,3381,3381,3381,3381,3381,3381,3381,3381,3381,3381,3381,3381,
3381,3381,3381,3381,3381,3381,3381,3381,3381,3381,3381,3381,3381,3381,3381,3381,
3381,3381,3381,3381,3381,3381,3381,3381,3381,3381,3381,3381,3381,3381,3381,3381,
3381,3381,3381,3381,3381,3381,3381,3381,3381,3381,3381,3381,3381,3381,3381,3381
</data>
 </layer>
 <objectgroup id="10" name="Object Layer 1">
  <object id="7" gid="9282" x="182" y="136" width="16" height="16"/>
  <object id="8" gid="9298" x="182.25" y="152.25" width="16" height="16"/>
 </objectgroup>
 <layer id="8" name="Objects" width="16" height="12">
  <data encoding="csv">
0,0,0,0,0,0,0,0,0,0,0,0,0,0,0,0,
10269,10270,10271,0,10333,10334,10336,0,9085,0,10269,10270,10271,0,0,0,
10285,10286,10287,0,10349,10350,10351,0,9101,0,10285,10286,10287,110,111,112,
0,9379,9380,9149,9150,0,0,10193,10194,0,0,0,0,186,0,188,
0,9395,9396,9165,9166,0,0,10209,10210,0,0,0,0,0,211,0,
0,0,0,0,0,0,0,0,0,0,0,0,0,0,0,0,
0,0,0,0,0,0,0,0,0,0,0,0,0,0,0,0,
0,0,0,0,10273,10274,10275,10276,0,0,0,0,0,0,0,0,
0,0,0,0,10289,10290,10291,10292,0,0,9280,9281,0,0,0,0,
0,10369,10370,0,10305,10306,10307,10308,0,0,9296,9297,0,0,0,0,
0,10385,10386,0,0,0,0,0,0,0,9264,9265,0,10422,10423,0,
0,0,0,0,0,0,0,0,0,0,0,0,0,10438,10439,0
</data>
 </layer>
 <objectgroup id="12" name="Object Layer 2">
  <object id="82" gid="10945" x="170" y="99" width="8" height="8"/>
  <object id="83" gid="10946" x="178" y="99" width="8" height="8"/>
  <object id="84" gid="10947" x="186" y="99" width="8" height="8"/>
  <object id="85" gid="10948" x="194" y="99" width="8" height="8"/>
  <object id="86" gid="11158" x="194" y="107" width="8" height="8"/>
  <object id="87" gid="11157" x="186" y="107" width="8" height="8"/>
  <object id="88" gid="11156" x="178" y="107" width="8" height="8"/>
  <object id="89" gid="11155" x="170" y="107" width="8" height="8"/>
  <object id="90" gid="11154" x="162" y="107" width="8" height="8"/>
  <object id="91" gid="11153" x="154" y="107" width="8" height="8"/>
  <object id="92" gid="10943" x="154" y="99" width="8" height="8"/>
  <object id="93" gid="10944" x="162" y="99" width="8" height="8"/>
  <object id="94" gid="11364" x="162" y="115" width="8" height="8"/>
  <object id="95" gid="11365" x="170" y="115" width="8" height="8"/>
  <object id="96" gid="11366" x="178" y="115" width="8" height="8"/>
  <object id="97" gid="11367" x="186" y="115" width="8" height="8"/>
  <object id="106" gid="10735" x="170" y="91" width="8" height="8"/>
  <object id="107" gid="10736" x="178" y="91" width="8" height="8"/>
  <object id="108" gid="10737" x="186.5" y="91" width="8" height="8"/>
  <object id="109" gid="10738" x="194.5" y="91" width="8" height="8"/>
  <object id="110" gid="10734" x="162" y="91" width="8" height="8"/>
  <object id="111" gid="10733" x="154" y="91" width="8" height="8"/>
 </objectgroup>
 <layer id="9" name="Objects on-top" width="16" height="12">
  <data encoding="csv">
0,0,0,0,0,0,0,0,0,0,0,0,0,0,0,0,
0,0,0,0,0,0,0,0,0,0,10261,10262,0,0,0,0,
0,0,0,0,0,0,0,0,10191,0,10277,10278,0,0,0,0,
0,0,9459,9460,0,0,0,10230,10207,0,0,0,0,0,0,0,
0,0,9475,9476,0,0,0,0,0,0,0,0,0,0,0,0,
0,0,0,0,0,0,0,0,0,0,0,0,0,0,0,0,
0,10061,0,0,0,0,0,0,0,0,0,0,0,0,0,0,
0,10077,0,0,10319,10320,0,0,11363,0,0,0,0,11368,0,0,
0,0,0,0,0,0,10228,0,0,0,0,0,0,0,0,0,
0,0,10322,0,0,0,10259,0,0,0,0,0,0,0,0,0,
0,0,0,0,0,0,0,0,0,0,0,0,0,0,0,0,
0,10087,10088,0,0,0,0,0,0,0,0,0,0,0,0,0
</data>
 </layer>
</map>
