<?xml version="1.0" encoding="UTF-8"?>
<map version="1.10" tiledversion="1.11.2" orientation="orthogonal" renderorder="right-down" width="17" height="12" tilewidth="16" tileheight="16" infinite="0" nextlayerid="11" nextobjectid="15">
 <editorsettings>
  <export target="assets/maps/nursery.json" format="json"/>
 </editorsettings>
 <tileset firstgid="1" source="../../Room_Builder_16x16_2.tsx"/>
 <tileset firstgid="8589" source="../../9_Fishing_16x16.tsx"/>
 <tileset firstgid="9021" source="../../4_Bedroom_16x16.tsx"/>
 <layer id="1" name="Floor" width="17" height="12">
  <data encoding="csv">
1467,1468,1468,1468,1468,1468,1468,1468,1468,1468,1468,1468,1468,1468,1468,1468,1469,
1471,1472,1472,1472,1472,1472,1472,1472,1472,1472,1472,1472,1472,1472,1472,1472,1473,
1471,1472,1472,1472,1472,1472,1472,1472,1472,1472,1472,1472,1472,1472,1472,393,1473,
1543,1544,1544,1544,1544,1544,1544,1544,1544,1544,1544,1544,1544,1544,1544,393,1545,
3381,3381,3381,3381,3381,3381,3381,3381,3381,3381,3381,3381,3381,3381,3381,3381,3381,
3381,3381,3381,3381,3381,3381,3381,3381,3381,3381,3381,3381,3381,3381,3381,3381,3381,
3381,3381,3381,3381,3381,3381,3381,3381,3381,3381,3381,3381,3381,3381,3381,3381,3381,
3381,3381,3381,3381,3381,3381,3381,3381,3381,3381,3381,3381,3381,3381,3381,3381,3381,
3381,3381,3381,3381,3381,3381,3381,3381,3381,3381,3381,3381,3381,3381,3381,3381,3381,
3381,3381,3381,3381,3381,3381,3381,3381,3381,3381,3381,3381,3381,3381,3381,3381,3381,
3381,3381,3381,3381,3381,3381,3381,3381,3381,3381,3381,3381,3381,3381,3381,3381,3381,
3381,3381,3381,3381,3381,3381,3381,3381,3381,3381,3381,3381,3381,3381,3381,3381,3381
</data>
 </layer>
 <objectgroup id="10" name="Object Layer 1">
  <object id="7" gid="9282" x="198" y="136" width="16" height="16"/>
  <object id="8" gid="9298" x="198.25" y="152.25" width="16" height="16"/>
 </objectgroup>
 <layer id="8" name="Objects" width="17" height="12">
  <data encoding="csv">
0,0,0,0,0,0,0,0,0,0,0,0,0,0,0,0,0,
0,10269,10270,10271,0,10333,10334,10336,0,9085,0,10269,10270,10271,0,0,0,
0,10285,10286,10287,0,10349,10350,10351,0,9101,0,10285,10286,10287,110,111,112,
0,0,9379,9380,9149,9150,0,0,10193,10194,0,0,0,0,186,0,188,
0,0,9395,9396,9165,9166,0,0,10209,10210,0,0,0,0,0,211,0,
0,0,0,0,0,0,0,0,0,0,0,0,0,0,0,0,0,
0,0,0,0,0,0,10273,10274,10275,10276,0,0,0,0,0,0,0,
0,0,0,0,0,0,10289,10290,10291,10292,0,0,0,0,0,0,0,
0,0,0,0,0,0,10305,10306,10307,10308,0,9280,9281,0,0,0,0,
0,0,10369,10370,0,0,0,0,0,0,0,9296,9297,0,0,0,0,
0,0,10385,10386,0,0,0,0,0,0,0,9264,9265,0,10422,10423,0,
0,0,0,0,0,0,0,0,0,0,0,0,0,0,10438,10439,0
</data>
 </layer>
 <layer id="9" name="Objects on-top" width="17" height="12">
  <data encoding="csv">
0,0,0,0,0,0,0,0,0,0,0,0,0,0,0,0,0,
0,0,0,0,0,0,0,0,0,0,0,10261,10262,0,0,0,0,
0,0,0,0,0,0,0,0,0,10191,0,10277,10278,0,0,0,0,
0,0,0,9459,9460,0,0,0,10230,10207,0,0,0,0,0,0,0,
0,0,0,9475,9476,0,0,0,0,0,0,0,0,0,0,0,0,
0,0,0,0,0,0,0,0,0,0,0,0,0,0,0,0,0,
0,0,10061,0,0,0,10319,10320,0,0,0,0,0,0,0,0,0,
0,0,10077,0,0,0,0,0,10228,0,0,0,0,0,0,0,0,
0,0,0,0,0,0,0,0,10259,0,0,0,0,0,0,0,0,
0,0,0,10322,0,0,0,0,0,0,0,0,0,0,0,0,0,
0,0,0,0,0,0,0,0,0,0,0,0,0,0,0,0,0,
0,0,10087,10088,0,0,0,0,0,0,0,0,0,0,0,0,0
</data>
 </layer>
</map>
