<?xml version="1.0" encoding="UTF-8"?>
<map version="1.10" tiledversion="1.11.2" orientation="orthogonal" renderorder="right-down" width="16" height="11" tilewidth="16" tileheight="16" infinite="0" nextlayerid="6" nextobjectid="1">
 <editorsettings>
  <chunksize width="16" height="11"/>
 </editorsettings>
 <tileset firstgid="1" source="../../Room_Builder_16x16_2.tsx"/>
 <tileset firstgid="8589" source="assets/tilesets/13_Conference_Hall_16x16.tsx"/>
 <layer id="5" name="Tile Layer 0" width="16" height="11">
  <data encoding="csv">
5537,5537,5537,5537,5537,5537,5537,5537,5537,5537,5537,5537,5537,5537,5537,5537,
5537,5537,5537,5537,5537,5537,5537,5537,5537,5537,5537,5537,5537,5537,5537,5537,
5537,5537,5537,5537,5537,5537,5537,5537,5537,5537,5537,5537,5537,5537,5537,5537,
5537,5537,5537,5537,5537,5537,5537,5537,5537,5537,5537,5537,5537,5537,5537,5537,
5537,5537,5537,5537,5537,5537,5537,5537,5537,5537,5537,5537,5537,5537,5537,5537,
5537,5537,5537,5537,5537,5537,5537,5537,5537,5537,5537,5537,5537,5537,5537,5537,
5537,5537,5537,5537,5537,5537,5537,5537,5537,5537,5537,5537,5537,5537,5537,5537,
5537,5537,5537,5537,5537,5537,5537,5537,5537,5537,5537,5537,5537,5537,5537,5537,
5537,5537,5537,5537,5537,5537,5537,5537,5537,5537,5537,5537,5537,5537,5537,5537,
5537,5537,5537,5537,5537,5537,5537,5537,5537,5537,5537,5537,5537,5537,5537,5537,
5537,5537,5537,5537,5537,5537,5537,5537,5537,5537,5537,5537,5537,5537,5537,5537
</data>
 </layer>
 <layer id="1" name="Tile Layer 1" width="16" height="11">
  <data encoding="csv">
848,849,849,849,849,849,849,849,849,849,849,849,849,849,849,850,
852,853,853,853,853,853,853,853,853,853,853,853,853,853,853,854,
924,925,925,925,925,925,925,925,932,925,925,925,925,925,925,926,
0,8605,8606,8607,8607,8607,8607,8607,8607,8607,8607,8607,8607,8608,8609,0,
0,8621,8622,8623,8623,8623,8623,8623,8623,8623,8623,8623,8623,8623,8625,0,
0,8621,8622,8623,8623,8623,8623,8623,8623,8623,8623,8623,8623,8623,8625,0,
0,8621,8622,8623,8623,8623,8623,8623,8623,8623,8623,8623,8623,8623,8625,0,
0,8621,8622,8623,8623,8623,8623,8623,8623,8623,8623,8623,8623,8623,8625,0,
0,8637,8638,8639,8639,8639,8639,8639,8639,8639,8639,8639,8639,8639,8641,0,
0,0,0,0,0,0,0,0,0,0,0,0,0,0,0,0,
0,0,0,0,0,0,0,0,0,0,0,0,0,0,0,0
</data>
 </layer>
 <layer id="2" name="Layer 2" width="16" height="11">
  <data encoding="csv">
0,0,0,0,0,0,0,0,0,0,0,0,0,0,0,0,
0,0,0,0,0,0,0,0,0,0,0,0,0,0,0,0,
0,0,0,0,0,0,0,0,0,0,0,0,0,0,0,0,
0,0,0,0,0,0,0,0,0,0,0,0,0,0,0,0,
0,0,0,0,0,0,0,0,0,0,0,0,0,0,0,0,
0,0,0,8661,8663,8663,8663,8663,8663,8663,8663,8663,8665,0,0,0,
0,0,0,8677,8679,8679,8679,8679,8679,8679,8679,8679,8681,0,0,0,
0,0,0,0,0,0,0,0,0,0,0,0,0,0,0,0,
0,0,0,0,0,0,0,0,0,0,0,0,0,0,0,0,
0,0,0,0,0,0,0,0,0,0,0,0,0,0,0,0,
0,0,0,0,0,0,0,0,0,0,0,0,0,0,0,0
</data>
 </layer>
 <layer id="4" name="Layer 3" width="16" height="11">
  <data encoding="csv">
0,0,0,0,0,0,0,0,0,0,0,0,0,0,0,0,
0,0,0,0,0,0,0,0,0,0,0,0,0,0,0,0,
0,0,0,0,0,0,0,0,0,0,0,0,0,0,0,0,
0,0,0,0,0,0,0,0,0,0,0,0,0,0,0,0,
0,0,0,0,0,0,0,0,0,0,0,0,0,0,0,0,
0,0,0,0,8668,0,8668,0,0,8668,0,8668,0,0,0,0,
0,0,0,0,0,0,0,0,0,0,0,0,0,0,0,0,
0,0,0,0,0,0,0,0,0,0,0,0,0,0,0,0,
0,0,0,0,0,0,0,0,0,0,0,0,0,0,0,0,
0,0,0,0,0,0,0,0,0,0,0,0,0,0,0,0,
0,0,0,0,0,0,0,0,0,0,0,0,0,0,0,0
</data>
 </layer>
</map>
