<?xml version="1.0" encoding="UTF-8"?>
<map version="1.10" tiledversion="1.12.1" orientation="orthogonal" renderorder="right-down" width="16" height="12" tilewidth="16" tileheight="16" infinite="0" nextlayerid="15" nextobjectid="93">
 <editorsettings>
  <export target="assets/maps/single_life.json" format="json"/>
 </editorsettings>
 <tileset firstgid="1" source="assets/tilesets/Room_Builder_16x16.tsx"/>
 <tileset firstgid="8589" source="assets/tilesets/color_palette.tsx"/>
 <tileset firstgid="11193" source="assets/tilesets/DanceFloor.tsx"/>
 <tileset firstgid="11321" source="assets/tilesets/images.tsx"/>
 <tileset firstgid="11326" source="assets/tilesets/Premade_Character_17.tsx"/>
 <tileset firstgid="13622" source="assets/tilesets/23_Television_and_Film_Studio.tsx"/>
 <tileset firstgid="13846" source="assets/tilesets/animated_amplifier_big.tsx"/>
 <tileset firstgid="13855" source="assets/tilesets/14_Basement_16x16.tsx"/>
 <tileset firstgid="14655" source="assets/tilesets/1_Generic_16x16.tsx"/>
 <tileset firstgid="15903" source="assets/tilesets/Body_ultra_white.tsx"/>
 <tileset firstgid="18240" name="Hairstyle_04_01_orange" tilewidth="16" tileheight="16" tilecount="2296" columns="56">
  <image source="assets/moderninteriors-win/2_Characters/Character_Generator/Hairstyles/16x16/Hairstyle_04_01.png" trans="ff00ff" width="896" height="656"/>
  <tile id="448">
   <animation>
    <frame tileid="448" duration="100"/>
    <frame tileid="449" duration="100"/>
    <frame tileid="450" duration="100"/>
    <frame tileid="451" duration="100"/>
    <frame tileid="452" duration="100"/>
    <frame tileid="453" duration="100"/>
   </animation>
  </tile>
  <tile id="454">
   <animation>
    <frame tileid="454" duration="100"/>
    <frame tileid="455" duration="100"/>
    <frame tileid="456" duration="100"/>
    <frame tileid="457" duration="100"/>
    <frame tileid="458" duration="100"/>
    <frame tileid="459" duration="100"/>
   </animation>
  </tile>
  <tile id="504">
   <animation>
    <frame tileid="504" duration="100"/>
    <frame tileid="505" duration="100"/>
    <frame tileid="506" duration="100"/>
    <frame tileid="507" duration="100"/>
    <frame tileid="508" duration="100"/>
    <frame tileid="509" duration="100"/>
   </animation>
  </tile>
  <tile id="510">
   <animation>
    <frame tileid="510" duration="100"/>
    <frame tileid="511" duration="100"/>
    <frame tileid="512" duration="100"/>
    <frame tileid="513" duration="100"/>
    <frame tileid="514" duration="100"/>
    <frame tileid="515" duration="100"/>
   </animation>
  </tile>
 </tileset>
 <tileset firstgid="20536" source="assets/tilesets/Outfit_06_01.tsx"/>
 <tileset firstgid="22832" source="assets/tilesets/Outfit_16_02.tsx"/>
 <tileset firstgid="25128" source="assets/tilesets/Hairstyle_06_02.tsx"/>
 <tileset firstgid="27424" source="assets/tilesets/Hairstyle_17_07.tsx"/>
 <tileset firstgid="29720" source="assets/tilesets/16_Grocery_store_16x16.tsx"/>
 <tileset firstgid="30968" source="assets/tilesets/12_Kitchen_16x16.tsx"/>
 <tileset firstgid="31752" source="assets/tilesets/Body_01_dark.tsx"/>
 <tileset firstgid="34089" source="assets/tilesets/Outfit_07_03.tsx"/>
 <tileset firstgid="36385" source="assets/tilesets/Hairstyle_20_04.tsx"/>
 <tileset firstgid="38681" source="assets/tilesets/Outfit_13_04.tsx"/>
 <tileset firstgid="40977" source="assets/tilesets/Hairstyle_27_06_red_red.tsx"/>
 <tileset firstgid="43273" source="assets/tilesets/Eyes_05_brown.tsx"/>
 <layer id="1" name="Tile Layer 1" width="16" height="12">
  <data encoding="csv">
3421,3422,3422,3422,3422,3422,3422,3422,3422,3422,3422,3422,3422,3422,3422,3423,
3425,3426,3426,3426,3426,3426,3426,3426,3426,3426,3426,3426,3426,3426,3426,3427,
3425,3426,3426,3426,3426,3426,3426,3426,3426,3426,3426,3426,3426,3426,3426,3427,
3497,3498,3498,3498,3498,3498,3498,3498,3498,3498,3498,3498,3498,3498,3498,3499,
11193,11194,11195,11196,11197,11198,11199,11200,11201,11202,11203,11204,11205,11206,11207,11208,
11209,11210,11211,11212,11213,11214,11215,11216,11217,11218,11219,11220,11221,11222,11223,11224,
11225,11226,11227,11228,11229,11230,11231,11232,11233,11234,11235,11236,11237,11238,11239,11240,
11241,11242,11243,11244,11245,11246,11247,11248,11249,11250,11251,11252,11253,11254,11255,11256,
11257,11258,11259,11260,11261,11262,11263,11264,11265,11266,11267,11268,11269,11270,11271,11272,
11273,11274,11275,11276,11277,11278,11279,11280,11281,11282,11283,11284,11285,11286,11287,11288,
11289,11290,11291,11292,11293,11294,11295,11296,11297,11298,11299,11300,11301,11302,11303,11304,
11305,11306,11307,11308,11309,11310,11311,11312,11313,11314,11315,11316,11317,11318,11319,11320
</data>
 </layer>
 <objectgroup id="10" name="Object Layer 0">
  <object id="80" gid="16092" x="176" y="66" width="16" height="16"/>
  <object id="81" gid="16035" x="176" y="50" width="16" height="16"/>
  <object id="82" gid="25258" x="176" y="50" width="16" height="16"/>
  <object id="83" gid="25314" x="176" y="66" width="16" height="16"/>
  <object id="84" gid="38855" x="176" y="66" width="16" height="16"/>
 </objectgroup>
 <layer id="6" name="Tile Layer 2" width="16" height="12">
  <data encoding="csv">
0,0,0,0,0,0,0,0,0,0,0,0,0,0,0,0,
0,0,0,0,0,0,0,0,0,0,0,0,0,0,0,0,
0,13846,13846,0,0,0,0,0,0,0,30988,30989,30990,0,13846,0,
0,13849,13849,0,13928,13929,13926,13927,0,0,13814,13815,13816,0,13849,0,
0,13852,13852,0,13944,13945,13942,13943,0,0,13830,13831,13832,0,13852,0,
0,0,0,0,13960,13961,13958,13959,0,0,0,0,0,0,0,0,
0,0,0,0,0,0,0,0,0,0,0,0,0,0,0,0,
0,0,0,11329,0,0,0,0,14098,14099,14100,0,0,0,0,0,
0,0,0,11385,0,0,0,0,14114,14115,14116,0,0,0,0,0,
0,0,0,0,0,0,0,0,14130,14131,14132,0,0,0,0,0,
0,0,0,0,0,0,0,0,0,0,0,0,0,0,0,0,
0,0,0,0,0,0,0,0,0,0,0,0,0,0,0,0
</data>
 </layer>
 <layer id="11" name="body" width="16" height="12">
  <data encoding="csv">
0,0,0,0,0,0,0,0,0,0,0,0,0,0,0,0,
0,0,0,0,0,0,0,0,0,0,0,0,0,0,0,0,
0,0,0,0,0,0,0,0,0,0,0,0,0,0,0,0,
0,0,0,0,0,0,0,0,0,0,0,0,0,0,0,0,
0,0,0,0,0,0,0,0,0,0,0,0,0,0,0,0,
0,0,0,0,0,0,0,0,0,0,0,0,0,0,0,0,
0,0,0,0,0,0,0,0,0,0,0,0,0,0,0,0,
0,0,0,0,0,0,0,0,0,0,0,0,0,0,0,0,
0,0,0,0,0,0,0,0,0,0,0,0,15906,0,0,0,
0,0,0,0,0,0,0,0,0,0,0,0,15963,0,0,0,
0,0,0,0,0,0,0,0,0,0,0,0,0,0,0,0,
0,0,0,0,0,0,0,0,0,0,0,0,0,0,0,0
</data>
 </layer>
 <layer id="12" name="eye" width="16" height="12">
  <data encoding="csv">
0,0,0,0,0,0,0,0,0,0,0,0,0,0,0,0,
0,0,0,0,0,0,0,0,0,0,0,0,0,0,0,0,
0,0,0,0,0,0,0,0,0,0,0,0,0,0,0,0,
0,0,0,0,0,0,0,0,0,0,0,0,0,0,0,0,
0,0,0,0,0,0,0,0,0,0,0,0,0,0,0,0,
0,0,0,0,0,0,0,0,0,0,0,0,0,0,0,0,
0,0,0,0,0,0,0,0,0,0,0,0,0,0,0,0,
0,0,0,0,0,0,0,0,0,0,0,0,0,0,0,0,
0,0,0,0,0,0,0,0,0,0,0,0,0,0,0,0,
0,0,0,0,0,0,0,0,0,0,0,0,43332,0,0,0,
0,0,0,0,0,0,0,0,0,0,0,0,0,0,0,0,
0,0,0,0,0,0,0,0,0,0,0,0,0,0,0,0
</data>
 </layer>
 <layer id="13" name="outfit" width="16" height="12">
  <data encoding="csv">
0,0,0,0,0,0,0,0,0,0,0,0,0,0,0,0,
0,0,0,0,0,0,0,0,0,0,0,0,0,0,0,0,
0,0,0,0,0,0,0,0,0,0,0,0,0,0,0,0,
0,0,0,0,0,0,0,0,0,0,0,0,0,0,0,0,
0,0,0,0,0,0,0,0,0,0,0,0,0,0,0,0,
0,0,0,0,0,0,0,0,0,0,0,0,0,0,0,0,
0,0,0,0,0,0,0,0,0,0,0,0,0,0,0,0,
0,0,0,0,0,0,0,0,0,0,0,0,0,0,0,0,
0,0,0,0,0,0,0,0,0,0,0,0,0,0,0,0,
0,0,0,0,0,0,0,0,0,0,0,0,38740,0,0,0,
0,0,0,0,0,0,0,0,0,0,0,0,0,0,0,0,
0,0,0,0,0,0,0,0,0,0,0,0,0,0,0,0
</data>
 </layer>
 <layer id="14" name="hair" width="16" height="12">
  <data encoding="csv">
0,0,0,0,0,0,0,0,0,0,0,0,0,0,0,0,
0,0,0,0,0,0,0,0,0,0,0,0,0,0,0,0,
0,0,0,0,0,0,0,0,0,0,0,0,0,0,0,0,
0,0,0,0,0,0,0,0,0,0,0,0,0,0,0,0,
0,0,0,0,0,0,0,0,0,0,0,0,0,0,0,0,
0,0,0,0,0,0,0,0,0,0,0,0,0,0,0,0,
0,0,0,0,0,0,0,0,0,0,0,0,0,0,0,0,
0,0,0,0,0,0,0,0,0,0,0,0,0,0,0,0,
0,0,0,0,0,0,0,0,0,0,0,0,40980,0,0,0,
0,0,0,0,0,0,0,0,0,0,0,0,41036,0,0,0,
0,0,0,0,0,0,0,0,0,0,0,0,0,0,0,0,
0,0,0,0,0,0,0,0,0,0,0,0,0,0,0,0
</data>
 </layer>
 <layer id="7" name="Tile Layer 3" width="16" height="12">
  <data encoding="csv">
0,0,0,0,0,0,0,0,0,0,0,0,0,0,0,0,
0,0,0,0,0,0,0,0,0,0,31188,0,31349,0,0,0,
0,0,0,0,0,0,0,0,0,0,31204,31191,31365,0,0,0,
0,0,0,0,0,0,0,0,0,0,0,0,0,0,0,0,
0,0,0,0,0,0,0,0,0,0,0,0,0,0,0,0,
0,0,0,0,0,0,0,0,0,0,0,0,0,0,0,0,
0,0,0,0,0,0,0,0,0,0,0,0,0,0,0,0,
0,0,0,0,0,0,0,0,0,0,0,0,0,0,0,0,
0,0,0,0,0,0,0,0,0,0,0,0,0,0,0,0,
0,0,0,0,0,0,0,0,0,0,0,0,0,0,0,0,
0,0,0,0,0,0,0,0,0,0,0,0,0,0,0,0,
0,0,0,0,0,0,0,0,0,0,0,0,0,0,0,0
</data>
 </layer>
 <objectgroup id="5" name="Object Layer 1">
  <object id="1" gid="11325" x="107" y="45" width="43" height="43"/>
  <object id="3" gid="13633" x="96" y="9" width="16" height="16"/>
  <object id="4" gid="13635" x="144" y="9" width="16" height="16"/>
  <object id="5" gid="13636" x="128" y="9" width="16" height="16"/>
  <object id="6" gid="13636" x="112" y="9" width="16" height="16"/>
  <object id="7" gid="13636" x="160" y="9" width="16" height="16"/>
  <object id="8" gid="13636" x="113" y="9" width="16" height="16"/>
  <object id="17" gid="13636" x="80" y="9" width="16" height="16"/>
  <object id="18" gid="13636" x="64" y="9" width="16" height="16"/>
  <object id="19" gid="13636" x="48" y="9" width="16" height="16"/>
  <object id="20" gid="13636" x="32" y="9" width="16" height="16"/>
  <object id="21" gid="13636" x="16" y="9" width="16" height="16"/>
  <object id="22" gid="13636" x="0" y="9" width="16" height="16"/>
  <object id="23" gid="13636" x="176" y="9" width="16" height="16"/>
  <object id="24" gid="13636" x="192" y="9" width="16" height="16"/>
  <object id="25" gid="13636" x="208" y="9" width="16" height="16"/>
  <object id="26" gid="13636" x="224" y="9" width="16" height="16"/>
  <object id="27" gid="13636" x="240" y="9" width="16" height="16"/>
  <object id="28" gid="13633" x="83" y="9" width="16" height="16"/>
  <object id="29" gid="13635" x="58" y="9" width="16" height="16"/>
  <object id="30" gid="13635" x="158" y="9" width="16" height="16"/>
  <object id="31" gid="13633" x="191" y="9" width="16" height="16"/>
  <object id="38" gid="14959" x="89" y="79" width="16" height="16"/>
  <object id="39" gid="14959" x="89" y="94" width="16" height="16"/>
  <object id="40" gid="16416" x="71" y="74" width="16" height="16"/>
  <object id="41" gid="16359" x="71" y="58" width="16" height="16"/>
  <object id="42" gid="18688" x="71" y="58" width="16" height="16"/>
  <object id="43" gid="18744" x="71" y="74" width="16" height="16"/>
  <object id="44" gid="21040" x="70" y="74" width="16" height="16"/>
  <object id="45" gid="16422" x="106" y="74" width="16" height="16"/>
  <object id="46" gid="16365" x="106" y="59" width="16" height="16"/>
  <object id="49" gid="23342" x="107" y="74" width="16" height="16"/>
  <object id="51" gid="25582" x="106" y="59" width="16" height="16"/>
  <object id="52" gid="25638" x="106" y="74" width="16" height="16"/>
  <object id="64" gid="31209" x="177" y="75" width="16" height="16"/>
  <object id="65" gid="31225" x="192" y="73" width="16" height="16"/>
 </objectgroup>
 <objectgroup id="8" name="Object Layer 2">
  <object id="47" gid="16422" x="106" y="87" width="16" height="16"/>
  <object id="48" gid="16365" x="106" y="71" width="16" height="16"/>
  <object id="54" gid="27878" x="108" y="72" width="16" height="16"/>
  <object id="55" gid="27934" x="107" y="87" width="16" height="16"/>
  <object id="56" gid="23342" x="106" y="87" width="16" height="16"/>
  <object id="62" gid="31170" x="176" y="70" width="16" height="16"/>
  <object id="66" gid="31225" x="193" y="71" width="16" height="16"/>
 </objectgroup>
 <objectgroup id="9" name="Object Layer 3">
  <object id="69" gid="31929" x="182" y="84" width="16" height="16"/>
  <object id="70" gid="31872" x="182" y="68" width="16" height="16"/>
  <object id="71" gid="34263" x="182" y="84" width="16" height="16"/>
  <object id="72" gid="36503" x="182" y="69" width="16" height="16"/>
  <object id="73" gid="36559" x="182" y="84" width="16" height="16"/>
  <object id="90" name="objective_1" x="152" y="104"/>
  <object id="91" name="objective_2" x="152" y="171"/>
 </objectgroup>
</map>
